docs/img/dist/icon-faq-07.svg

<svg width="22" height="22" viewBox="0 0 22 22" fill="none" xmlns="http://www.w3.org/2000/svg">
<path fill-rule="evenodd" clip-rule="evenodd" d="M21.5 9.65012C20.75 3.65012 14.375 -0.849883 7.925 0.875117C5.9 1.47512 4.025 2.82512 2.675 4.77512C1.33776 6.55425 0.578596 8.70085 0.5 10.9251V13.9251C0.526545 14.2651 0.645329 14.5915 0.843562 14.869C1.0418 15.1465 1.31197 15.3647 1.625 15.5001L15.125 21.1251C15.5624 21.306 16.0317 21.397 16.505 21.3927C16.9783 21.3883 17.4459 21.2886 17.8798 21.0996C18.3138 20.9107 18.7052 20.6362 19.0308 20.2927C19.3564 19.9492 19.6095 19.5436 19.775 19.1001L20 18.5751L20.6 18.8001C20.6887 18.8361 20.7847 18.8504 20.88 18.8418C20.9753 18.8331 21.0672 18.8018 21.1479 18.7504C21.2287 18.699 21.2959 18.6291 21.3442 18.5464C21.3924 18.4637 21.4201 18.3707 21.425 18.2751V9.72512L21.5 9.65012ZM18.5 18.8751C18.05 20.1501 16.625 20.3751 15.5 19.9251L2.225 14.3001C2.10697 14.2528 2.00705 14.1691 1.93965 14.0613C1.87224 13.9534 1.84085 13.827 1.85 13.7001V11.0001C1.85 7.17512 4.85 3.27512 8.375 2.30012C13.175 0.950117 18.875 3.95012 19.925 8.97512L12.425 8.00012C11.375 7.85012 10.25 8.90012 10.25 9.95012V12.7251C10.25 13.4751 10.775 14.2251 11.45 14.5251L18.8 18.2751L18.5 19.0251V18.8751ZM12.725 9.35012V13.7001L11.975 13.1001C11.75 12.9501 11.75 12.7251 11.75 12.5001V10.0251C11.75 9.72512 11.975 9.27512 12.35 9.35012H12.725ZM20 17.2251L14.15 14.1501V9.65012L20 10.4001V17.1501V17.2251Z" fill="#202020"/>
<path fill-rule="evenodd" clip-rule="evenodd" d="M5.37498 9.12505C4.73165 9.14455 4.12123 9.4139 3.67317 9.87595C3.22512 10.338 2.97468 10.9564 2.97498 11.6C2.99381 12.2306 3.25271 12.8302 3.69878 13.2762C4.14485 13.7223 4.74442 13.9812 5.37498 14C5.7 14 6.02184 13.936 6.32212 13.8117C6.6224 13.6873 6.89524 13.505 7.12506 13.2751C7.35489 13.0453 7.5372 12.7725 7.66158 12.4722C7.78596 12.1719 7.84998 11.8501 7.84998 11.525C7.84998 11.2 7.78596 10.8782 7.66158 10.5779C7.5372 10.2776 7.35489 10.0048 7.12506 9.77496C6.89524 9.54513 6.6224 9.36283 6.32212 9.23845C6.02184 9.11407 5.7 9.05005 5.37498 9.05005V9.12505ZM5.37498 12.875C5.21033 12.8661 5.0493 12.8232 4.90193 12.7493C4.75457 12.6753 4.62403 12.5717 4.51847 12.4451C4.41291 12.3184 4.33459 12.1713 4.28839 12.013C4.2422 11.8547 4.22912 11.6886 4.24998 11.525C4.24998 11.2877 4.32035 11.0557 4.45221 10.8584C4.58407 10.661 4.77148 10.5072 4.99076 10.4164C5.21003 10.3256 5.45131 10.3018 5.68408 10.3481C5.91686 10.3944 6.13068 10.5087 6.2985 10.6765C6.46633 10.8443 6.58062 11.0582 6.62692 11.2909C6.67322 11.5237 6.64946 11.765 6.55863 11.9843C6.46781 12.2035 6.314 12.391 6.11666 12.5228C5.91932 12.6547 5.68731 12.725 5.44998 12.725L5.37498 12.875Z" fill="#D61635"/>
</svg>

<svg width="22" height="22" fill="none" xmlns="http://www.w3.org/2000/svg"><path fill-rule="evenodd" clip-rule="evenodd" d="M21.5 9.65c-.75-6-7.125-10.5-13.575-8.775-2.025.6-3.9 1.95-5.25 3.9A10.875 10.875 0 00.5 10.925v3A1.875 1.875 0 001.625 15.5l13.5 5.625a3.527 3.527 0 004.65-2.025l.225-.525.6.225a.6.6 0 00.825-.525v-8.55l.075-.075zm-3 9.225c-.45 1.275-1.875 1.5-3 1.05L2.225 14.3a.6.6 0 01-.375-.6V11c0-3.825 3-7.725 6.525-8.7 4.8-1.35 10.5 1.65 11.55 6.675L12.425 8c-1.05-.15-2.175.9-2.175 1.95v2.775c0 .75.525 1.5 1.2 1.8l7.35 3.75-.3.75v-.15zM12.725 9.35v4.35l-.75-.6c-.225-.15-.225-.375-.225-.6v-2.475c0-.3.225-.75.6-.675h.375zM20 17.225l-5.85-3.075v-4.5l5.85.75v6.825z" fill="#202020"/><path fill-rule="evenodd" clip-rule="evenodd" d="M5.375 9.125a2.475 2.475 0 00-2.4 2.475 2.475 2.475 0 002.4 2.4 2.476 2.476 0 001.75-4.225 2.475 2.475 0 00-1.75-.725v.075zm0 3.75a1.2 1.2 0 01-1.125-1.35 1.2 1.2 0 111.2 1.2l-.075.15z" fill="#D61635"/></svg>
